!!!OTL: SAH EIN KNAB EIN ROESLEIN STEHN
!!!ARE: Europa, Mitteleuropa, Deutschland
!!!SCT: B0114A
!!!YEM: Copyright 1995, estate of Helmut Schaffrath.
**kern
*ICvox
*Ivox
*M6/8
*k[b-]
*F:
=1
{4a
8a
8.cc
16b-
8a
=2
4g
8g
4.g}
=3
{4a
8a
8b-
8cc
8dd
=4
4.dd
4cc
8r}
=5
{4cc
8b-
4a
8a
=6
4a
8g
4.f}
=7
{4f
8f
8f
8g
8a
=8
4b-
8a
4g
8r}
=9
{4a
8a
8.cc
16b-
8a
=10
4.a
4g
8r}
=11
{4a
8cc
4dd
8dd
=12
8cc
8dd
8ee
4.ff}
=13
{4ff
8dd
4cc
8a
=14
8.g
16a
8g
4f
8r}
==
!!!AGN: Ballade, Romanze
!!!ONB: ESAC (Essen Associative Code) Database: BOEHME
!!!AMT: compound duple
!!!AIN: vox
!!!EED: Helmut Schaffrath
!!!EEV: 1.0
*-
